assets/images/user-plus.svg

<svg width="20" height="20" viewBox="0 0 20 20" fill="none" xmlns="http://www.w3.org/2000/svg">
<path d="M13.5562 5.55506C13.5562 7.51901 11.9641 9.1111 10.0001 9.1111C8.03618 9.1111 6.44408 7.51901 6.44408 5.55506C6.44408 3.59112 8.03618 1.99902 10.0001 1.99902C11.9641 1.99902 13.5562 3.59112 13.5562 5.55506Z" fill="#8B9C8F"/>
<path d="M10 16C10 16.7689 10.2893 17.4703 10.765 18.0012H4.22155C2.80591 18.0012 1.99902 17.5567 1.99902 16.2232C1.99902 12.6671 5.99958 10.0001 9.99876 10.0001C11.3537 10.0001 12.7088 10.3062 13.9084 10.8493C13.3481 11.3944 13 12.1565 13 13C11.3431 13 10 14.3431 10 16Z" fill="#8B9C8F"/>
<path d="M16 12C16.5523 12 17 12.4477 17 13V15H19C19.5523 15 20 15.4477 20 16C20 16.5523 19.5523 17 19 17H17V19C17 19.5523 16.5523 20 16 20C15.4477 20 15 19.5523 15 19V17H13C12.4477 17 12 16.5523 12 16C12 15.4477 12.4477 15 13 15H15V13C15 12.4477 15.4477 12 16 12Z" fill="#8B9C8F"/>
</svg>

<?xml version="1.0" encoding="UTF-8"?>
<svg xmlns="http://www.w3.org/2000/svg" version="1.1" viewBox="0 0 20 20">
  <!-- Generator: Adobe Illustrator 28.6.0, SVG Export Plug-In . SVG Version: 1.2.0 Build 709)  -->
  <g>
    <g id="Layer_1">
      <path d="M13.556,5.555c0,1.964-1.592,3.556-3.556,3.556s-3.556-1.592-3.556-3.556,1.592-3.556,3.556-3.556,3.556,1.592,3.556,3.556Z"/>
      <path d="M10,16c0,.769.289,1.47.765,2.001h-6.543c-1.416,0-2.223-.444-2.223-1.778,0-3.556,4.001-6.223,8-6.223,1.355,0,2.71.306,3.91.849-.56.545-.908,1.307-.908,2.151-1.657,0-3,1.343-3,3Z"/>
      <path d="M16,12c.552,0,1,.448,1,1v2h2c.552,0,1,.448,1,1s-.448,1-1,1h-2v2c0,.552-.448,1-1,1s-1-.448-1-1v-2h-2c-.552,0-1-.448-1-1s.448-1,1-1h2v-2c0-.552.448-1,1-1Z"/>
    </g>
  </g>
</svg>
